X:15323
T:Shepherd's Daughter, The
R:reel
H:Played single or double. See also #721
D:Vinnie Kilduff
Z:id:hn-reel-315
M:C|
K:Ador
~e3g ed (3B^cd|eA~A2 eA (3B^cd|~e2ge edBe|dgge dG (3B^cd|
~e3g ed (3B^cd|eAAG ABBA|GABd efga|bgaf gefd:|
|:eaaf gefd|eaag ed (3B^cd|eaaf gefd|eBde gd (3B^cd|
eaaf (3gag fd|eaab =c'abg|eaaf gefd|eBde gd (3B^cd:|
